src/rounded/icons/fi-rr-brush.svg

<svg id="Layer_1" height="512" viewBox="0 0 24 24" width="512" xmlns="http://www.w3.org/2000/svg" data-name="Layer 1"><path d="m19 0h-14a5.006 5.006 0 0 0 -5 5v5a7.009 7.009 0 0 0 7 7h2v4a3 3 0 0 0 6 0v-4h2a7.009 7.009 0 0 0 7-7v-5a5.006 5.006 0 0 0 -5-5zm-17 5a3 3 0 0 1 3-3h5v1a1 1 0 0 0 2 0v-1h2v3a1 1 0 0 0 2 0v-3h2v5a1 1 0 0 0 2 0v-4.816a3 3 0 0 1 2 2.816v5h-20zm15 10h-3a1 1 0 0 0 -1 1v5a1 1 0 0 1 -2 0v-5a1 1 0 0 0 -1-1h-3a5 5 0 0 1 -4.576-3h19.152a5 5 0 0 1 -4.576 3z"/></svg>

<svg id="Layer_1" data-name="Layer 1" xmlns="http://www.w3.org/2000/svg" viewBox="0 0 24 24"><path d="M19,0H5A5.006,5.006,0,0,0,0,5v5a7.009,7.009,0,0,0,7,7H9v4a3,3,0,0,0,6,0V17h2a7.009,7.009,0,0,0,7-7V5A5.006,5.006,0,0,0,19,0ZM2,5A3,3,0,0,1,5,2h5V3a1,1,0,0,0,2,0V2h2V5a1,1,0,0,0,2,0V2h2V7a1,1,0,0,0,2,0V2.184A3,3,0,0,1,22,5v5H2ZM17,15H14a1,1,0,0,0-1,1v5a1,1,0,0,1-2,0V16a1,1,0,0,0-1-1H7a5,5,0,0,1-4.576-3H21.576A5,5,0,0,1,17,15Z"/></svg>
